!!!COM: Beethoven
!!!OTL: 24 Variationen uber Venni Amore von V. Righini
!!!Variation: Variation 24 e
**function	**harm	**kern	**kern
*	*	*clefF4	*clefG2
*	*	*k[f#c#]	*k[f#c#]
*M2/4	*M2/4	*M2/4	*M2/4
*D:	*D:	*D:	*D:
=536	=536	=536	=536
2T	2I	2r	4r
.	.	.	(32r
.	.	.	32a
.	.	.	32b
.	.	.	32cc#
.	.	.	32dd
.	.	.	32ee
.	.	.	32ff#
.	.	.	32gg
=537	=537	=537	=537
4T	4I	8d 8f#'	16aa')
.	.	.	16a
.	.	8r	16b
.	.	.	16a
4T	4V	8A 8e'	16aa'
.	.	.	16a
.	.	8r	16b
.	.	.	16a
=538	=538	=538	=538
2T	2Ib	[4F# [4d	16aa'
.	.	.	16a
.	.	.	16b
.	.	.	16a
.	.	8.F#] 8.d]	16aa'
.	.	.	16a
.	.	.	16b
.	.	16A 16c#	16a
=539	=539	=539	=539
*	*	*^	*
2T	2IV	4G	4B	16ddd
.	.	.	.	16dd
.	.	.	.	16ee
.	.	.	.	16dd
.	.	4G	(8B	16ddd
.	.	.	.	16dd
.	.	.	8d)	16ee
.	.	.	.	16dd
*	*	*v	*v	*
=540	=540	=540	=540
2T	2Ib	4F# 4A	16ddd
.	.	.	16dd
.	.	.	16ee
.	.	.	16dd
.	.	8r	16ddd
.	.	.	16dd
.	.	16r	16ee
.	.	16E 16G	16dd
=541	=541	=541	=541
2T	2I	8D 8F#	16aa
.	.	.	16dd
.	.	8r	16ee
.	.	.	16dd
.	.	(4D 4F#	16aa
.	.	.	16dd
.	.	.	16ee
.	.	.	16dd
=542	=542	=542	=542
2P	2iib	8GG) 8E'	16gg
.	.	.	16b
.	.	8r	16cc#
.	.	.	16b
.	.	(4GG 4E	16gg
.	.	.	16b
.	.	.	16cc#
.	.	.	16b
=543	=543	=543	=543
2D	2V	8AA) 8C#'	16ee
.	.	.	16a
.	.	8r	16b
.	.	.	16a
.	.	(4AA 4C#	16ee
.	.	.	16a
.	.	.	16b
.	.	.	16a
=544	=544	=544	=544
2T	2I	8DD) 8D'	16ff#
.	.	.	16a
.	.	8r	16b
.	.	.	16a
.	.	4r	16ff#
.	.	.	16a
.	.	.	16b
.	.	.	16a
*-	*-	*-	*-
